svgs/regular/table-picnic.svg

<svg xmlns="http://www.w3.org/2000/svg" viewBox="0 0 512 512"><!--! Font Awesome Pro 6.2.0 by @fontawesome - https://fontawesome.com License - https://fontawesome.com/license (Commercial License) Copyright 2022 Fonticons, Inc. --><path d="M33.84 414.8c-5.094 12.25 .7187 26.28 12.97 31.34C49.81 447.4 52.94 448 56 448c9.406 0 18.34-5.562 22.16-14.81L125.1 320H73.16L33.84 414.8zM438.8 320h-51.93l46.93 113.2C437.7 442.4 446.6 448 456 448c3.062 0 6.188-.5938 9.188-1.844c12.25-5.062 18.06-19.09 12.97-31.34L438.8 320zM488 240h-82.33l-53.07-128H424C437.3 112 448 101.3 448 88C448 74.74 437.3 64 424 64H88C74.75 64 64 74.74 64 88C64 101.3 74.75 112 88 112h71.4l-53.07 128H24C10.75 240 0 250.7 0 264C0 277.3 10.75 288 24 288h464C501.3 288 512 277.3 512 264C512 250.7 501.3 240 488 240zM158.3 240l53.07-128h89.34l53.07 128H158.3z"/></svg>

<svg xmlns="http://www.w3.org/2000/svg" viewBox="0 0 512 512"><!--! Font Awesome Pro 6.3.0 by @fontawesome - https://fontawesome.com License - https://fontawesome.com/license (Commercial License) Copyright 2023 Fonticons, Inc. --><path d="M88 64C74.7 64 64 74.7 64 88s10.7 24 24 24h71.4L106.3 240H24c-13.3 0-24 10.7-24 24s10.7 24 24 24H86.4h52H373.6h52H488c13.3 0 24-10.7 24-24s-10.7-24-24-24H405.7L352.6 112H424c13.3 0 24-10.7 24-24s-10.7-24-24-24H88zM438.9 320h-52l46.9 113.2c5.1 12.2 19.1 18.1 31.4 13s18.1-19.1 13-31.4L438.9 320zm-313.8 0h-52L33.8 414.8c-5.1 12.2 .7 26.3 13 31.4s26.3-.7 31.4-13L125.1 320zm33.2-80l53.1-128h89.3l53.1 128H158.3z"/></svg>
